en/_assets/data-transfer/icons/clickhouse-icon.svg

<svg width="32" height="30" viewBox="0 0 32 30" fill="none" xmlns="http://www.w3.org/2000/svg">
<path d="M0 0.686523H3.5552V25.7078H0V0.686523ZM7.1104 0.686523H10.6656V29.2823H7.1104V0.686523ZM14.2208 0.686523H17.776V29.2823H14.2208V0.686523ZM21.3312 0.686523H24.8864V29.2823H21.3312V0.686523ZM28.4416 12.3035H31.9968V17.6652H28.4416V12.3035Z" fill="#FFCC00"/>
</svg>

<svg xmlns="http://www.w3.org/2000/svg" width="32" height="30" fill="none"><path fill="#FC0" d="M0 .687h3.555v25.02H0V.688Zm7.11 0h3.556v28.595H7.11V.687Zm7.11 0h3.556v28.595h-3.555V.687Zm7.111 0h3.555v28.595h-3.555V.687Zm7.11 11.617h3.556v5.361h-3.555v-5.361Z"/></svg>
